X: 11045
T: Dublin Porter, The
R: reel
M: 4/4
K: Gmajor
B2BA BcdB|cBAB cdec|Add^c dcAG|FGBF DEFD|
ABBA BcdB|cBAB cdef|g2fg ecAF|1 GGGF G2DG:|2 GGGF GABc||
dggf gdBd|g2fg eAAA|eAAA eAeg|fgag fgaf|
g2gf gdBd|g2fg eAAA|eAAA eAeg|1 fgaf g2ef:|2 fgaf gfed||

